X: 22032
T: Kneebuckle, The
R: jig
M: 6/8
K: Dmajor
|:dGG dGG|d>dd dcA|dGG d2 d|dcA G3|
dGG dGG|d>dd dcA|cde fed|cAF G3:|
|:gdg fcf|ece d2 g|gdg fcf|ece d2 g|
gdg fcf|ece d2 G|cde fed|cAF G3:|
|:eAA eAA|e>ee edB|eAA e2 e|edB A3|
eAA eAA|e>ee edB|def gfe|dBG A3:|
|:aea gdg|fdf e2 a|aea gdg|fdf e2 a|
aea gdg|fdf e2 A|def gfe|dBG A3:|

